teeny/outline/git-pull.svg

<svg width="15" height="15" viewBox="0 0 15 15" fill="none" xmlns="http://www.w3.org/2000/svg">
<path d="M8.5 0.5L6.5 2.5M6.5 2.5L8.5 4.5M6.5 2.5H9.5C11.1569 2.5 12.5 3.84315 12.5 5.5V7.5M2.5 10.5C1.39543 10.5 0.5 11.3954 0.5 12.5C0.5 13.6046 1.39543 14.5 2.5 14.5C3.60457 14.5 4.5 13.6046 4.5 12.5C4.5 11.3954 3.60457 10.5 2.5 10.5ZM2.5 10.5V4.5M2.5 4.5C3.60457 4.5 4.5 3.60457 4.5 2.5C4.5 1.39543 3.60457 0.5 2.5 0.5C1.39543 0.5 0.5 1.39543 0.5 2.5C0.5 3.60457 1.39543 4.5 2.5 4.5ZM12.5 7.5C11.3954 7.5 10.5 8.39543 10.5 9.5C10.5 10.6046 11.3954 11.5 12.5 11.5C13.6046 11.5 14.5 10.6046 14.5 9.5C14.5 8.39543 13.6046 7.5 12.5 7.5Z" stroke="black"/>
</svg>

<svg viewBox="0 0 15 15" xmlns="http://www.w3.org/2000/svg"><path fill="none" stroke="#000" d="M8.5.5l-2 2m0 0l2 2m-2-2h3c1.65 0 3 1.34 3 3v2m-10 3c-1.11 0-2 .89-2 2 0 1.1.89 2 2 2 1.1 0 2-.9 2-2 0-1.11-.9-2-2-2Zm0 0v-6m0 0c1.1 0 2-.9 2-2 0-1.11-.9-2-2-2 -1.11 0-2 .89-2 2 0 1.1.89 2 2 2Zm10 3c-1.11 0-2 .89-2 2 0 1.1.89 2 2 2 1.1 0 2-.9 2-2 0-1.11-.9-2-2-2Z"/></svg>
